dist/img/icons/benefits/delivery-truck.svg

<svg width="27" height="27" viewBox="0 0 27 27" fill="none" xmlns="http://www.w3.org/2000/svg">
<g clip-path="url(#clip0)">
<path d="M20.7488 19.0876C20.5077 19.0876 20.2721 19.1591 20.0717 19.293C19.8713 19.427 19.715 19.6173 19.6228 19.84C19.5306 20.0627 19.5064 20.3078 19.5534 20.5442C19.6005 20.7806 19.7165 20.9977 19.887 21.1682C20.0574 21.3386 20.2746 21.4547 20.511 21.5017C20.7474 21.5488 20.9925 21.5246 21.2152 21.4324C21.4379 21.3401 21.6282 21.1839 21.7621 20.9835C21.8961 20.7831 21.9675 20.5474 21.9675 20.3064C21.9672 19.9833 21.8387 19.6735 21.6102 19.445C21.3817 19.2165 21.0719 19.088 20.7488 19.0876ZM20.7488 20.7127C20.6684 20.7127 20.5899 20.6888 20.5231 20.6442C20.4563 20.5995 20.4042 20.5361 20.3735 20.4619C20.3427 20.3876 20.3347 20.3059 20.3503 20.2271C20.366 20.1483 20.4047 20.076 20.4615 20.0191C20.5183 19.9623 20.5907 19.9236 20.6695 19.908C20.7483 19.8923 20.83 19.9003 20.9042 19.9311C20.9785 19.9618 21.0419 20.0139 21.0866 20.0807C21.1312 20.1475 21.155 20.2261 21.155 20.3064C21.1549 20.4141 21.1121 20.5174 21.0359 20.5935C20.9598 20.6697 20.8565 20.7125 20.7488 20.7127Z" fill="white"/>
<path d="M6.12378 21.5252C6.36482 21.5252 6.60046 21.4537 6.80088 21.3198C7.0013 21.1858 7.15751 20.9955 7.24975 20.7728C7.342 20.5501 7.36613 20.305 7.31911 20.0686C7.27208 19.8322 7.15601 19.6151 6.98556 19.4446C6.81512 19.2742 6.59796 19.1581 6.36154 19.1111C6.12513 19.064 5.88008 19.0882 5.65738 19.1804C5.43469 19.2727 5.24434 19.4289 5.11043 19.6293C4.97651 19.8297 4.90503 20.0654 4.90503 20.3064C4.90539 20.6295 5.03391 20.9393 5.26239 21.1678C5.49087 21.3963 5.80066 21.5248 6.12378 21.5252ZM6.12378 19.9001C6.20413 19.9001 6.28267 19.924 6.34948 19.9686C6.41629 20.0133 6.46836 20.0767 6.4991 20.1509C6.52985 20.2252 6.5379 20.3069 6.52222 20.3857C6.50655 20.4645 6.46785 20.5368 6.41104 20.5937C6.35422 20.6505 6.28184 20.6892 6.20303 20.7048C6.12423 20.7205 6.04254 20.7125 5.96831 20.6817C5.89408 20.651 5.83063 20.5989 5.78599 20.5321C5.74135 20.4653 5.71753 20.3867 5.71753 20.3064C5.71765 20.1987 5.76049 20.0954 5.83665 20.0193C5.91281 19.9431 6.01607 19.9003 6.12378 19.9001Z" fill="white"/>
<path d="M25.5705 14.4173L22.3205 8.72979C22.2848 8.66765 22.2334 8.61601 22.1715 8.58008C22.1095 8.54415 22.0392 8.5252 21.9675 8.52514H17.4988V5.68139C17.4988 5.57364 17.456 5.47031 17.3798 5.39413C17.3036 5.31794 17.2003 5.27514 17.0925 5.27514H13.1803C12.6883 4.76144 12.0973 4.35265 11.4431 4.07338C10.7889 3.79412 10.0849 3.65015 9.37353 3.65015C8.66218 3.65015 7.95819 3.79412 7.30396 4.07338C6.64972 4.35265 6.05878 4.76144 5.56671 5.27514H1.65503C1.54729 5.27514 1.44395 5.31794 1.36777 5.39413C1.29158 5.47031 1.24878 5.57364 1.24878 5.68139V20.3064C1.24878 20.4141 1.29158 20.5175 1.36777 20.5936C1.44395 20.6698 1.54729 20.7126 1.65503 20.7126H3.72081C3.77676 21.0414 3.89949 21.3552 4.08142 21.6347C4.26335 21.9142 4.50061 22.1534 4.77858 22.3376H1.24878C1.14104 22.3376 1.0377 22.3804 0.961517 22.4566C0.88533 22.5328 0.842529 22.6361 0.842529 22.7439C0.842529 22.8516 0.88533 22.955 0.961517 23.0311C1.0377 23.1073 1.14104 23.1501 1.24878 23.1501H23.948C24.0557 23.1501 24.1591 23.1073 24.2353 23.0311C24.3114 22.955 24.3542 22.8516 24.3542 22.7439C24.3542 22.6361 24.3114 22.5328 24.2353 22.4566C24.1591 22.3804 24.0557 22.3376 23.948 22.3376H22.094C22.3719 22.1534 22.6092 21.9142 22.7911 21.6347C22.9731 21.3552 23.0958 21.0414 23.1517 20.7126H25.2175C25.3253 20.7126 25.4286 20.6698 25.5048 20.5936C25.581 20.5175 25.6238 20.4141 25.6238 20.3064V14.6189C25.6238 14.5482 25.6054 14.4787 25.5705 14.4173ZM22.4281 10.5564L24.5173 14.2126H19.53V10.5564H22.4281ZM5.97956 6.02772C6.04694 5.98659 6.10092 5.92679 6.13495 5.85557C6.94443 5.0043 8.05665 4.50614 9.23076 4.46897C10.4049 4.4318 11.5464 4.85861 12.4081 5.65697C13.2698 6.45533 13.7823 7.56099 13.8347 8.73452C13.8871 9.90805 13.4752 11.055 12.6881 11.927C11.901 12.799 10.8021 13.3258 9.62931 13.3935C8.45656 13.4611 7.30436 13.0641 6.42222 12.2883C5.54009 11.5126 4.99901 10.4206 4.91616 9.24887C4.83331 8.0771 5.21535 6.91985 5.97956 6.02772ZM2.06128 6.08764H4.92534C4.41464 6.88572 4.12806 7.8065 4.09562 8.75345C4.06319 9.70039 4.28611 10.6386 4.74101 11.4698C5.19591 12.3009 5.86603 12.9944 6.68113 13.4775C7.49623 13.9606 8.42628 14.2155 9.37378 14.2155C10.3213 14.2155 11.2513 13.9606 12.0664 13.4775C12.8815 12.9944 13.5516 12.3009 14.0065 11.4698C14.4614 10.6386 14.6844 9.70039 14.6519 8.75345C14.6195 7.8065 14.3329 6.88572 13.8222 6.08764H16.6863V16.6501H2.06128V6.08764ZM3.72081 19.9001H2.06128V17.4626H16.6863V19.9001H8.52675C8.43084 19.3322 8.13687 18.8166 7.69699 18.4448C7.25711 18.0729 6.69975 17.8689 6.12378 17.8689C5.5478 17.8689 4.99045 18.0729 4.55057 18.4448C4.11069 18.8166 3.81672 19.3322 3.72081 19.9001ZM6.12378 21.9314C5.80238 21.9314 5.48821 21.8361 5.22098 21.6575C4.95375 21.479 4.74547 21.2252 4.62247 20.9282C4.49948 20.6313 4.4673 20.3046 4.53 19.9894C4.5927 19.6741 4.74747 19.3846 4.97473 19.1573C5.20199 18.9301 5.49154 18.7753 5.80676 18.7126C6.12198 18.6499 6.44871 18.6821 6.74564 18.8051C7.04257 18.9281 7.29636 19.1364 7.47492 19.4036C7.65347 19.6708 7.74878 19.985 7.74878 20.3064C7.7483 20.7372 7.57694 21.1503 7.27229 21.4549C6.96765 21.7595 6.55461 21.9309 6.12378 21.9314ZM7.46898 22.3376C7.74694 22.1534 7.98421 21.9142 8.16614 21.6347C8.34807 21.3552 8.47079 21.0414 8.52675 20.7126H18.3458C18.4018 21.0414 18.5245 21.3552 18.7064 21.6347C18.8883 21.9142 19.1256 22.1534 19.4036 22.3376H7.46898ZM20.7488 21.9314C20.4274 21.9314 20.1132 21.8361 19.846 21.6575C19.5787 21.479 19.3705 21.2252 19.2475 20.9282C19.1245 20.6313 19.0923 20.3046 19.155 19.9894C19.2177 19.6741 19.3725 19.3846 19.5997 19.1573C19.827 18.9301 20.1165 18.7753 20.4318 18.7126C20.747 18.6499 21.0737 18.6821 21.3706 18.8051C21.6676 18.9281 21.9214 19.1364 22.0999 19.4036C22.2785 19.6708 22.3738 19.985 22.3738 20.3064C22.3733 20.7372 22.2019 21.1503 21.8973 21.4549C21.5927 21.7595 21.1796 21.9309 20.7488 21.9314ZM24.8113 17.0564H23.9988C23.891 17.0564 23.7877 17.0136 23.7115 16.9374C23.6353 16.8612 23.5925 16.7579 23.5925 16.6501C23.5925 16.5424 23.6353 16.4391 23.7115 16.3629C23.7877 16.2867 23.891 16.2439 23.9988 16.2439H24.8113V17.0564ZM24.8113 15.4314H23.9988C23.6755 15.4314 23.3656 15.5598 23.137 15.7884C22.9084 16.0169 22.78 16.3269 22.78 16.6501C22.78 16.9734 22.9084 17.2834 23.137 17.5119C23.3656 17.7405 23.6755 17.8689 23.9988 17.8689H24.8113V19.9001H23.1517C23.0558 19.3322 22.7619 18.8166 22.322 18.4448C21.8821 18.0729 21.3248 17.8689 20.7488 17.8689C20.1728 17.8689 19.6154 18.0729 19.1756 18.4448C18.7357 18.8166 18.4417 19.3322 18.3458 19.9001H17.4988V9.33764H21.7319L21.964 9.74389H19.1238C19.016 9.74389 18.9127 9.78669 18.8365 9.86287C18.7603 9.93906 18.7175 10.0424 18.7175 10.1501V14.6189C18.7175 14.7266 18.7603 14.83 18.8365 14.9061C18.9127 14.9823 19.016 15.0251 19.1238 15.0251H24.8113V15.4314Z" fill="white"/>
<path d="M25.573 22.3376H25.1667C25.059 22.3376 24.9557 22.3804 24.8795 22.4566C24.8033 22.5328 24.7605 22.6362 24.7605 22.7439C24.7605 22.8516 24.8033 22.955 24.8795 23.0312C24.9557 23.1073 25.059 23.1501 25.1667 23.1501H25.573C25.6807 23.1501 25.7841 23.1073 25.8603 23.0312C25.9364 22.955 25.9792 22.8516 25.9792 22.7439C25.9792 22.6362 25.9364 22.5328 25.8603 22.4566C25.7841 22.3804 25.6807 22.3376 25.573 22.3376Z" fill="white"/>
<path d="M6.69253 10.4752L8.31753 11.6939C8.3995 11.7554 8.50166 11.7836 8.60356 11.773C8.70546 11.7623 8.79957 11.7135 8.86704 11.6364L11.7108 8.38643C11.7817 8.30534 11.8176 8.19938 11.8104 8.09187C11.8032 7.98436 11.7536 7.88411 11.6726 7.81316C11.5915 7.74221 11.4855 7.70638 11.378 7.71355C11.2705 7.72072 11.1702 7.7703 11.0993 7.85139L8.50365 10.8178L7.18003 9.82516C7.09384 9.76051 6.98549 9.73276 6.87883 9.74799C6.77217 9.76323 6.67593 9.82022 6.61128 9.90641C6.54663 9.99261 6.51888 10.101 6.53411 10.2076C6.54935 10.3143 6.60634 10.4105 6.69253 10.4752Z" fill="white"/>
</g>
<defs>
<clipPath id="clip0">
<rect width="26" height="26" fill="white" transform="translate(0.436279 0.399902)"/>
</clipPath>
</defs>
</svg>

<svg width="27" height="27" fill="none" xmlns="http://www.w3.org/2000/svg"><g clip-path="url(#clip0)" fill="#fff"><path d="M20.749 19.088a1.219 1.219 0 100 2.437 1.219 1.219 0 000-2.437zm0 1.625a.406.406 0 110-.813.406.406 0 010 .813zm-14.625.812a1.219 1.219 0 100-2.438 1.219 1.219 0 000 2.438zm0-1.625a.407.407 0 110 .813.407.407 0 010-.813z"/><path d="M25.57 14.417L22.32 8.73a.408.408 0 00-.352-.205h-4.47V5.681a.406.406 0 00-.405-.406H13.18a5.27 5.27 0 00-7.613 0H1.655a.406.406 0 00-.406.406v14.625a.406.406 0 00.406.407h2.066a2.44 2.44 0 001.058 1.625h-3.53a.406.406 0 100 .812h22.699a.406.406 0 000-.812h-1.854a2.44 2.44 0 001.058-1.625h2.066a.406.406 0 00.406-.407V14.62c0-.07-.019-.14-.053-.202zm-3.142-3.86l2.09 3.656H19.53v-3.657h2.898zM5.98 6.026a.408.408 0 00.155-.171 4.467 4.467 0 11-.155.172zm-3.919.06h2.864a5.281 5.281 0 108.897 0h2.864V16.65H2.061V6.088zM3.721 19.9H2.06v-2.437h14.625V19.9h-8.16a2.437 2.437 0 00-4.805 0zm2.403 2.031a1.625 1.625 0 110-3.249 1.625 1.625 0 010 3.25zm1.345.407a2.44 2.44 0 001.058-1.625h9.819a2.442 2.442 0 001.058 1.625H7.469zm13.28-.407a1.625 1.625 0 110-3.249 1.625 1.625 0 010 3.25zm4.062-4.875H24a.406.406 0 110-.812h.812v.812zm0-1.625H24a1.219 1.219 0 100 2.438h.812V19.9h-1.66a2.437 2.437 0 00-4.805 0H17.5V9.338h4.233l.232.406h-2.84a.406.406 0 00-.406.406v4.469a.406.406 0 00.406.406h5.687v.406zm.762 6.907h-.406a.406.406 0 000 .812h.406a.407.407 0 000-.812z"/><path d="M6.693 10.475l1.625 1.219a.406.406 0 00.549-.058l2.844-3.25a.406.406 0 00-.612-.535l-2.595 2.967-1.324-.993a.406.406 0 10-.487.65z"/></g><defs><clipPath id="clip0"><path fill="#fff" transform="translate(.436 .4)" d="M0 0h26v26H0z"/></clipPath></defs></svg>
